<?xml version="1.0" encoding="UTF-8"?>
<map version="1.10" tiledversion="1.12.2" orientation="orthogonal" renderorder="right-down" width="26" height="46" tilewidth="16" tileheight="16" infinite="0" nextlayerid="8" nextobjectid="14">
 <properties>
  <property name="items" value="../Items/1-Items.png"/>
  <property name="monster1" value="../Enemies/1-Monsters-Animated.png"/>
  <property name="player" value="../Player/1-Heroes-Animated.png"/>
 </properties>
 <tileset firstgid="1" name="1-Dungeon" tilewidth="16" tileheight="16" tilecount="100" columns="10">
  <image source="../Tiles/1-Dungeon.png" width="160" height="160"/>
 </tileset>
 <layer id="2" name="Bottom" width="26" height="46">
  <data encoding="csv">
0,0,0,0,0,0,0,0,0,0,0,90,90,0,0,0,0,0,0,0,0,0,0,0,0,0,
0,0,0,0,0,0,0,0,0,0,0,90,90,0,0,0,0,0,0,0,0,0,0,0,0,0,
0,0,0,0,0,0,0,0,0,0,0,90,90,0,0,0,0,0,0,0,0,0,0,0,0,0,
0,90,90,90,90,90,90,90,90,90,0,90,90,0,90,90,90,90,90,90,90,90,90,0,0,0,
0,90,90,90,90,90,90,90,90,90,0,90,90,0,90,90,90,90,90,90,90,90,90,0,0,0,
0,90,90,90,0,0,0,0,0,0,0,90,90,0,0,0,0,0,0,0,90,90,90,0,0,0,
0,90,0,0,0,90,90,90,90,90,90,90,90,90,90,90,90,90,90,0,0,0,90,0,0,0,
0,90,90,90,90,90,90,90,90,90,90,90,90,90,90,90,90,90,90,90,90,90,90,0,0,0,
0,90,0,0,0,90,90,90,90,90,90,90,90,90,90,90,90,90,90,0,0,0,90,0,0,0,
0,90,90,90,0,0,0,0,0,0,0,90,90,0,0,0,0,0,0,0,90,90,90,0,0,0,
0,90,90,90,90,90,90,90,90,90,0,90,90,0,90,90,90,90,90,90,90,90,90,0,0,0,
0,90,90,90,90,90,90,90,90,90,0,90,90,0,90,90,90,90,90,90,90,90,90,0,0,0,
0,90,90,90,90,90,90,90,90,90,0,90,90,0,90,90,90,90,90,90,90,90,90,0,0,0,
0,90,90,90,90,90,90,90,90,90,0,90,90,0,90,90,90,90,90,90,90,90,90,0,0,0,
0,0,0,0,0,0,0,0,0,0,0,90,90,0,0,0,0,0,0,0,0,0,0,0,0,0,
0,90,90,90,90,90,90,90,90,90,90,90,90,90,90,90,90,90,90,90,90,90,90,0,0,0,
0,90,90,90,90,90,90,90,0,90,90,90,90,90,90,90,90,90,90,90,90,90,90,90,90,0,
0,90,90,90,90,90,90,90,0,90,90,90,90,90,90,90,90,90,90,90,90,90,90,90,90,0,
0,90,90,0,0,0,0,0,0,90,90,90,90,90,90,90,90,90,90,90,90,90,90,90,90,0,
0,90,90,0,90,90,90,90,90,90,90,90,90,90,90,90,90,90,90,90,90,90,90,90,90,0,
0,90,90,0,90,90,90,90,90,90,90,90,90,90,90,90,90,90,90,90,90,90,90,90,90,0,
0,90,90,0,90,90,90,90,90,90,90,90,90,90,90,90,90,90,90,90,90,90,90,90,90,0,
0,90,90,0,90,90,90,90,90,90,90,90,90,90,90,90,90,90,90,90,90,90,90,90,90,0,
0,90,90,0,90,90,90,90,90,90,90,90,90,90,90,90,90,90,90,90,90,90,90,90,90,0,
0,90,90,0,0,0,0,0,0,90,90,90,90,90,90,90,90,90,90,90,90,90,90,90,90,0,
0,90,90,90,90,90,90,90,0,90,90,90,90,90,90,90,90,90,90,90,90,90,90,90,90,0,
0,90,90,90,90,90,90,90,0,90,90,90,90,90,90,90,90,90,90,90,90,90,90,0,0,0,
0,90,90,90,90,90,90,90,90,90,90,90,90,90,90,90,90,90,90,90,90,90,90,0,0,0,
0,0,0,0,0,90,0,0,0,0,0,0,0,0,0,0,0,0,0,0,0,0,90,0,0,0,
0,90,90,90,90,90,0,90,90,90,90,90,90,90,90,90,0,90,90,90,90,90,90,0,0,0,
0,90,90,90,90,90,0,90,90,90,90,90,90,90,90,90,90,90,90,90,90,90,90,0,0,0,
0,90,90,90,90,90,0,90,90,90,90,90,90,90,90,90,0,90,90,90,90,90,90,0,0,0,
0,90,90,90,90,90,0,90,90,90,90,90,90,90,90,90,0,90,90,90,90,90,90,0,0,0,
0,90,90,90,90,90,0,90,0,0,0,0,0,0,0,0,0,90,90,90,90,90,90,0,0,0,
0,90,90,90,90,90,0,90,90,90,90,90,90,90,90,90,0,90,90,90,90,90,90,0,0,0,
0,0,0,90,0,0,0,0,0,90,90,90,90,90,90,90,0,0,0,0,0,0,0,0,0,0,
0,90,90,90,90,90,90,90,0,90,90,90,90,90,90,90,90,90,90,90,90,90,90,0,0,0,
0,90,90,90,90,90,90,90,0,90,90,90,90,90,90,90,0,0,0,0,90,90,90,0,0,0,
0,90,90,90,90,90,90,90,90,90,90,90,90,90,90,90,90,90,90,0,90,90,90,0,0,0,
0,90,90,90,90,90,90,90,0,0,0,0,0,0,0,0,0,90,90,0,0,0,0,0,0,0,
0,90,90,90,90,90,90,90,0,90,90,90,0,90,90,90,90,90,90,0,90,90,90,0,0,0,
0,90,90,90,90,90,90,90,0,90,90,90,0,90,90,90,90,90,90,90,90,90,90,0,0,0,
0,90,90,90,90,90,90,90,90,90,90,90,90,90,90,90,90,90,90,0,90,90,90,0,0,0,
0,0,0,0,0,0,0,0,0,0,0,90,0,0,0,0,0,0,0,0,0,0,0,0,0,0,
0,0,0,0,0,0,0,0,0,0,0,90,90,0,0,0,0,0,0,0,0,0,0,0,0,0,
0,0,0,0,0,0,0,0,0,0,0,90,90,0,0,0,0,0,0,0,0,0,0,0,0,0
</data>
 </layer>
 <layer id="3" name="Overlay" width="26" height="46">
  <properties>
   <property name="Collidable" type="bool" value="true"/>
  </properties>
  <data encoding="csv">
0,0,0,0,0,0,0,0,0,0,0,0,0,0,0,0,0,0,0,0,0,0,0,0,0,0,
0,0,0,0,0,0,0,0,0,0,0,0,0,0,0,0,0,0,0,0,0,0,0,0,0,0,
0,0,0,0,0,0,0,0,0,0,0,0,0,0,0,0,0,0,0,0,0,0,0,0,0,0,
0,0,0,0,0,0,0,0,0,0,0,0,0,0,0,0,0,0,0,0,0,0,0,0,0,0,
0,0,0,0,0,0,0,0,0,0,0,0,0,0,0,0,0,0,0,0,0,0,0,0,0,0,
0,0,0,0,0,0,0,0,0,0,0,0,0,0,0,0,0,0,0,0,0,0,0,0,0,0,
0,0,0,0,0,0,0,0,0,0,0,0,0,0,0,0,0,0,0,0,0,0,0,0,0,0,
0,0,0,0,0,0,0,0,0,0,0,0,0,0,0,0,0,0,0,0,0,0,0,0,0,0,
0,0,0,0,0,0,0,0,0,0,0,0,0,0,0,0,0,0,0,0,0,0,0,0,0,0,
0,0,0,0,0,0,0,0,0,0,0,0,0,0,0,0,0,0,0,0,0,0,0,0,0,0,
0,0,0,0,84,83,82,83,82,83,0,0,0,0,82,83,84,82,83,84,0,0,0,0,0,0,
0,0,0,0,0,0,0,0,0,0,0,0,0,0,0,0,0,0,0,0,0,0,0,0,0,0,
0,0,0,0,0,94,91,93,95,0,0,0,0,0,94,91,93,95,0,0,0,0,0,0,0,0,
0,0,0,0,0,0,0,0,0,0,0,0,0,0,0,0,0,0,0,0,0,0,0,0,0,0,
0,0,0,0,0,0,0,0,0,0,0,0,0,0,0,0,0,0,0,0,0,0,0,0,0,0,
0,0,0,0,0,0,0,0,0,0,0,0,0,0,0,0,0,0,0,0,0,0,0,0,0,0,
0,0,0,0,0,0,0,0,0,0,0,0,0,0,0,0,0,0,0,0,0,0,0,81,81,0,
0,0,0,0,0,0,0,0,0,0,0,0,0,0,0,0,0,0,0,0,0,0,0,0,0,0,
0,0,0,0,0,0,0,0,0,0,0,0,0,0,0,0,0,0,0,0,0,0,0,0,0,0,
0,0,0,0,94,91,92,93,95,0,94,91,92,93,95,0,94,91,92,93,95,0,0,0,0,0,
0,0,0,0,0,0,0,0,0,0,0,0,0,0,0,0,0,0,0,0,0,0,0,0,0,0,
0,0,0,0,94,91,92,93,95,0,94,91,92,93,95,0,94,91,92,93,95,0,0,0,0,0,
0,0,0,0,0,0,0,0,0,0,0,0,0,0,0,0,0,0,0,0,0,0,0,0,0,0,
0,0,0,0,94,91,92,93,95,0,94,91,92,93,95,0,94,91,92,93,95,0,0,0,0,0,
0,0,0,0,0,0,0,0,0,0,0,0,0,0,0,0,0,0,0,0,0,0,0,0,0,0,
0,0,0,0,0,0,0,0,0,0,0,0,0,0,0,0,0,0,0,0,0,0,0,0,0,0,
0,0,0,0,0,0,0,0,0,0,0,0,0,0,0,0,0,0,0,0,0,0,0,0,0,0,
0,0,0,0,0,0,0,0,0,0,0,0,0,0,0,0,0,0,0,0,0,0,0,0,0,0,
0,0,0,0,0,0,0,0,0,0,0,0,0,0,0,0,0,0,0,0,0,0,0,0,0,0,
0,0,0,0,0,0,0,0,0,0,0,0,0,0,0,0,0,0,0,0,0,0,0,0,0,0,
0,0,0,0,0,0,0,0,0,0,0,0,0,0,0,0,0,0,0,0,0,0,0,0,0,0,
0,0,0,0,0,0,0,0,0,0,0,0,0,0,0,0,0,0,0,0,0,0,0,0,0,0,
0,0,0,0,0,0,0,0,0,0,0,0,0,0,0,0,0,0,0,0,0,0,0,0,0,0,
0,0,0,0,0,0,0,0,0,0,0,0,0,0,0,0,0,0,0,0,0,0,0,0,0,0,
0,0,0,0,0,0,0,0,0,0,0,0,0,0,0,0,0,0,0,0,0,0,0,0,0,0,
0,0,0,0,0,0,0,0,0,0,0,0,0,0,0,0,0,0,0,0,0,0,0,0,0,0,
0,0,0,0,0,0,0,0,0,0,0,0,0,0,0,0,0,0,0,0,0,0,0,0,0,0,
0,0,0,0,0,0,0,0,0,0,0,0,0,0,0,0,0,0,0,0,0,0,0,0,0,0,
0,0,0,0,0,0,0,0,0,0,0,0,0,0,0,0,0,0,0,0,0,0,0,0,0,0,
0,0,0,0,0,0,0,0,0,0,0,0,0,0,0,0,0,0,0,0,0,0,0,0,0,0,
0,0,0,0,0,0,0,0,0,0,0,0,0,0,0,0,0,0,0,0,0,0,0,0,0,0,
0,0,0,0,0,0,0,0,0,0,0,0,0,0,0,0,0,0,0,0,0,0,0,0,0,0,
0,0,0,0,0,0,0,0,0,0,0,0,0,0,0,0,0,0,0,0,0,0,0,0,0,0,
0,0,0,0,0,0,0,0,0,0,0,0,0,0,0,0,0,0,0,0,0,0,0,0,0,0,
0,0,0,0,0,0,0,0,0,0,0,0,0,0,0,0,0,0,0,0,0,0,0,0,0,0,
0,0,0,0,0,0,0,0,0,0,0,0,0,0,0,0,0,0,0,0,0,0,0,0,0,0
</data>
 </layer>
 <objectgroup id="4" name="Objects1">
  <object id="7" name="Player" type="Player" x="182" y="715" width="16" height="16">
   <properties>
    <property name="animationTime" value="0.3"/>
    <property name="spriteCol" value="0"/>
    <property name="spriteRow" value="1"/>
    <property name="textureID" value="player"/>
    <property name="totalFrames" value="3"/>
   </properties>
  </object>
  <object id="8" name="Zombie1" type="Enemy" x="47" y="663" width="16" height="16">
   <properties>
    <property name="animationTime" value="0.3"/>
    <property name="spriteCol" value="0"/>
    <property name="spriteRow" value="0"/>
    <property name="textureID" value="monster1"/>
    <property name="totalFrames" value="3"/>
   </properties>
  </object>
  <object id="9" name="Zombie2" type="Enemy" x="78" y="603" width="16" height="16">
   <properties>
    <property name="animationTime" value="0.3"/>
    <property name="spriteCol" value="0"/>
    <property name="spriteRow" value="1"/>
    <property name="textureID" value="monster1"/>
    <property name="totalFrames" value="3"/>
   </properties>
  </object>
  <object id="10" name="Mimic" type="Enemy" x="17" y="49" width="16" height="16">
   <properties>
    <property name="animationTime" value="0.3"/>
    <property name="spriteCol" value="8"/>
    <property name="spriteRow" value="1"/>
    <property name="textureID" value="monster1"/>
    <property name="totalFrames" value="3"/>
   </properties>
  </object>
  <object id="11" name="Coin1" type="Item" x="150" y="660" width="16" height="16">
   <properties>
    <property name="animationTime" value="0.15"/>
    <property name="spriteCol" value="0"/>
    <property name="spriteRow" value="0"/>
    <property name="textureID" value="items"/>
    <property name="totalFrames" value="1"/>
   </properties>
  </object>
  <object id="12" name="Coin2" type="Item" x="60" y="520" width="16" height="16">
   <properties>
    <property name="animationTime" value="0.15"/>
    <property name="spriteCol" value="1"/>
    <property name="spriteRow" value="0"/>
    <property name="textureID" value="items"/>
    <property name="totalFrames" value="1"/>
   </properties>
  </object>
  <object id="13" name="Coin3" type="Item" x="329.235" y="257.81" width="16" height="16">
   <properties>
    <property name="animationTime" value="0.15"/>
    <property name="spriteCol" value="2"/>
    <property name="spriteRow" value="0"/>
    <property name="textureID" value="items"/>
    <property name="totalFrames" value="1"/>
   </properties>
  </object>
 </objectgroup>
 <layer id="1" name="Collision" width="26" height="46">
  <properties>
   <property name="Collidable" type="bool" value="true"/>
  </properties>
  <data encoding="csv">
0,0,0,0,0,0,0,0,0,0,15,0,0,15,0,0,0,0,0,0,0,0,0,0,0,0,
0,0,0,0,0,0,0,0,0,0,15,0,0,15,0,0,0,0,0,0,0,0,0,0,0,0,
3,4,4,4,4,4,4,4,4,4,2,0,0,11,4,4,4,4,4,4,4,4,4,5,0,0,
15,0,0,0,0,0,0,0,0,0,15,0,0,15,0,0,0,0,0,0,0,0,0,15,0,0,
15,0,0,0,0,0,0,0,0,0,15,0,0,15,0,0,0,0,0,0,0,0,0,15,0,0,
15,0,0,0,3,4,4,4,4,4,25,0,0,13,4,4,4,4,4,5,0,0,0,15,0,0,
15,0,23,4,25,0,0,0,0,0,0,0,0,0,0,0,0,0,0,13,4,14,0,15,0,0,
15,0,0,0,0,0,0,0,0,0,0,0,0,0,0,0,0,0,0,0,0,0,0,15,0,0,
15,0,23,4,5,0,0,0,0,0,0,0,0,0,0,0,0,0,0,3,4,14,0,15,0,0,
15,0,0,0,13,4,4,4,4,4,5,0,0,3,24,24,24,24,24,25,0,0,0,15,0,0,
15,0,0,0,0,0,0,0,0,0,15,0,0,15,0,0,0,0,0,0,0,0,0,15,0,0,
15,0,0,0,0,0,0,0,0,0,15,0,0,15,0,0,0,0,0,0,0,0,0,15,0,0,
15,0,0,0,0,0,0,0,0,0,15,0,0,15,0,0,0,0,0,0,0,0,0,15,0,0,
15,0,0,0,0,0,0,0,0,0,15,0,0,15,0,0,0,0,0,0,0,0,0,15,0,0,
11,4,4,4,4,4,4,4,4,4,25,0,0,13,4,4,4,4,4,4,4,4,4,2,0,0,
15,0,0,0,0,0,0,0,0,0,0,0,0,0,0,0,0,0,0,0,0,0,0,13,4,5,
15,0,0,0,0,0,0,0,22,0,0,0,0,0,0,0,0,0,0,0,0,0,0,0,0,15,
15,0,0,0,0,0,0,0,15,0,0,0,0,0,0,0,0,0,0,0,0,0,0,0,0,15,
15,0,0,3,4,4,4,4,25,0,0,0,0,0,0,0,0,0,0,0,0,0,0,0,0,15,
15,0,0,15,0,0,0,0,0,0,0,0,0,0,0,0,0,0,0,0,0,0,0,0,0,15,
15,0,0,15,0,0,0,0,0,0,0,0,0,0,0,0,0,0,0,0,0,0,0,0,0,15,
15,0,0,15,0,0,0,0,0,0,0,0,0,0,0,0,0,0,0,0,0,0,0,0,0,15,
15,0,0,15,0,0,0,0,0,0,0,0,0,0,0,0,0,0,0,0,0,0,0,0,0,15,
15,0,0,15,0,0,0,0,0,0,0,0,0,0,0,0,0,0,0,0,0,0,0,0,0,15,
15,0,0,13,4,4,4,4,5,0,0,0,0,0,0,0,0,0,0,0,0,0,0,0,0,15,
15,0,0,0,0,0,0,0,11,4,4,4,4,4,4,4,4,4,4,4,4,14,0,0,0,15,
15,0,0,0,0,0,0,0,21,0,0,0,0,0,0,0,0,0,0,0,0,0,0,3,4,25,
15,0,0,0,0,0,0,0,0,0,0,0,0,0,0,0,0,0,0,0,0,0,0,15,0,0,
11,4,4,4,14,0,3,4,4,4,4,4,4,4,4,4,1,4,4,4,4,14,0,15,0,0,
15,0,0,0,0,0,15,0,0,0,0,0,0,0,0,0,21,0,0,0,0,0,0,15,0,0,
15,0,0,0,0,0,15,0,0,0,0,0,0,0,0,0,0,0,0,0,0,0,0,15,0,0,
15,0,0,0,0,0,15,0,0,0,0,0,0,0,0,0,22,0,0,0,0,0,0,15,0,0,
15,0,0,0,0,0,15,0,0,0,0,0,0,0,0,0,15,0,0,0,0,0,0,15,0,0,
15,0,0,0,0,0,15,0,23,24,24,24,24,24,24,24,2,0,0,0,0,0,0,15,0,0,
15,0,0,0,0,0,15,0,0,0,0,0,0,0,0,0,15,0,0,0,0,0,0,15,0,0,
11,4,14,0,23,24,12,4,5,0,0,0,0,0,0,0,13,4,4,4,4,4,4,2,0,0,
15,0,0,0,0,0,0,0,15,0,0,0,0,0,0,0,0,0,0,0,0,0,0,15,0,0,
15,0,0,0,0,0,0,0,21,0,0,0,0,0,0,0,23,4,4,5,0,0,0,15,0,0,
15,0,0,0,0,0,0,0,0,0,0,0,0,0,0,0,0,0,0,15,0,0,0,15,0,0,
15,0,0,0,0,0,0,0,3,4,4,4,1,4,4,4,14,0,0,11,24,24,24,2,0,0,
15,0,0,0,0,0,0,0,15,0,0,0,15,0,0,0,0,0,0,21,0,0,0,15,0,0,
15,0,0,0,0,0,0,0,21,0,0,0,21,0,0,0,0,0,0,0,0,0,0,15,0,0,
15,0,0,0,0,0,0,0,0,0,0,0,0,0,0,0,0,0,0,22,0,0,0,15,0,0,
13,4,4,4,4,4,4,4,4,4,5,0,23,1,24,24,24,24,24,12,24,24,24,25,0,0,
0,0,0,0,0,0,0,0,0,0,15,0,0,15,0,0,0,0,0,0,0,0,0,0,0,0,
0,0,0,0,0,0,0,0,0,0,15,0,0,15,0,0,0,0,0,0,0,0,0,0,0,0
</data>
 </layer>
</map>
